X:2
T:MUS240 Woodwind Trio - parts
C:Ali Corbin
M:3/2
L:1/2
Q:1/2=100
K:Dmin
%%MIDI program 1 41 % Viola
%%MIDI program 2 41 % Viola
%%MIDI program 3 41 % Viola
V:Top name="Top" snm="Top"
z3|z3|z3|z3|z3|z3|dAd|ad'a|gzc|dcB|A2z|
d/f/d/A/G|A/d/f/d/B|A/d/A/F/F/>z/|F/A/c/f/c|A/d/f/d/B|c2z|
G//A//=B/c/de/|E//F//G/A/=Bc/|C//D//E/F/GA/|=B2z|d//c//=B/A/GF/|=B//A//G/F/ED/|C2 z|
F//f//d//d'// A//a//A//d// A/>z/|D//d//=B//b// F//f//F//B// F/>z/|=B,//B//G//g// D//d//D//G// D/>z/| 
E//e//=B//b// G//g//G//B// G/>z/|G//g//c//c'// =B//b//B//d// B/>z/|=B//g//c//c'// B//b//B//d// B/>z/|e3||
V:Melody name="Melody" snm="Mel"
z3|z3|z3|z3|z2
D|D2 (C/2D/2)|F2 (G/2F/2)|D2 A|c2 (A/2G/2)|F2 G|A2
D|D2 (C/2D/2)|F2 (G/2F/2)|D2 A|c2 (A/2G/2)|F2 G|A2
A|c2 (A/2G/2)|A2 (G/2F/2)|D2 (C/2A,/2)|C2 C|D2 (C/2D/2)|F2 (G/2F/2)|D2
A|c2 (A/2G/2)|A2 (G/2F/2)|D2 (C/2A,/2)|C2 ^C|D2 (^C/2D/2)|F2 (G/2F/2)|D3||
V:Ground name="Ground" snm="Gr."
D3|F3|z3|D3|F3|z3|D3|F3|z3|D3|F3|
z3|D3|F3|z3|D3|F3|
z3|D3|F3|z3|D3|F3|z3|
D3|F3|z3|D3-|D3|_E3-|_E3||
%%%%%%%%%%%%%%%%
V:Top
[M:4/4]
[Q:1/2=60]
[K:AMaj]
z2|z2|z2|z2|z2|Lg//b// z///Lg//b///z// Lg//b//z/// Le///-|e///g///z// Le//g//z/// Le//g///z// Lc//|
|: e//z/// Lc//e///z// Lc//e///z// c3/8|z z/ c/|Ld//z/ e/Lf//z/| e/Lb//z/e/Lc'//|z/ e/Lc'//z/ d//-|d//Lf//-f/ z/ z// c// :|
e3/z/ |ce|z/ Be/-|e/z/ c|e3/z/ |ce-|e/z/ c|e3/z/ |ce-|e/ z/c|e2||
V:Melody
[M:4/4]
[Q:1/2=60]
[K:AMaj]
z2|z2|z2|z2|z2|z2|z2|
|:AG/A/|BA|G/A/B/c/|(d/<B/)c/A/|(B/>c/)A/G/|A2:|
(c/>d/)e/e/|(e/<c/)(c/A/)|d/d/(d/<c/)|Bc/c/|ee|B/c/(B/<A/)|(G/<E/)A/G/|A/B/c/d/|ec/A/|(B/>c/)A/G/|A2||
V:Ground
[M:4/4]
[Q:1/2=60]
[K:AMaj]
z2|C,2|E,2|z2|C,2|E,2|z2|
|:C,2|E,2|z2|E,2|G,2|z2:|
A,,2|E,2|z2|E,2|B,2|z2|C,2|F,2|z2|E,2|A,2||
%%%%%%%%%%%%%%%%
V:Top
[K:BbMaj]
[M:3/2]
[L:1/2]
[Q:1/2=100]
"^Harmony"
z3|B2(3(A/B/c/)|G2(3(A/B/c/)|B2(3(A/B/c/)|(dc/<B/)(3(A/B/c/)|(BF)B|(d2c/<B/)|F(FB)|
d(Bc/<d/)|(3(c/B/A/)(Bc)|(fg)(3(d/c/B/)|f2(3(f/e/d/)|Bf2|f2(3(f/e/d/)|(Bc/<d/)B|ff2|dB2|
F(BF)|G2(3(B/A/G/)|F2B|G2(B/>c/)|(d>ef)|e(dc/<B/)|cd2|B3||
V:Melody
[K:BbMaj]
[M:3/2]
[L:1/2]
[Q:1/2=100]
"^Melody"
z2(B|d/>e/dc|B/>c/de|f/>e/dc|B2) (B|B2F|G/>A/BG|FBF|B2)
(d|f2f|d/>c/BB|d/>e/ff|f2) (B|d/>e/ff|gf(3B/c/d/|cB(3A/B/c/|d/>c/B)
(d|BFF|B/>c/dB|AB(3c/B/A/|B/>c/d) (d|f/e/d/c/B/A/|B/c/d/e/f/e/|d/f/B/d/(3c/B/A/|B3)||
V:Ground
[K:BbMaj]
[M:3/2]
[L:1/2]
[Q:1/2=100]
B,,2-B,,/>z/|F,2-F,/>z/|z3|B,,2-B,,/>z/|F,2-F,/>z/|z3|
z3|B,,2-B,,/>z/|F,2-F,/>z/|z3|z3|B,,3|z2
B,|B,2F,|(G,/>A,/B,)G,|(F,B,)F,|B,,2
B,|B,2F,|(G,/>A,/B,)G,|(F,B,)F,|B,,2
B,|B,2F,|(G,/>A,/B,)G,|(F,B,)F,|B,,3||



